Improvs/dist/images/main_page/minimize-icon.svg

<svg width="24" height="24" viewBox="0 0 24 24" fill="none" xmlns="http://www.w3.org/2000/svg">
<path d="M13.1373 13.1371L18.1943 14.4921L14.4924 18.1941L13.1373 13.1371Z" fill="white"/>
<path d="M11.4115 11.4118L6.35448 10.0567L10.0565 6.35475L11.4115 11.4118Z" fill="white"/>
<path fill-rule="evenodd" clip-rule="evenodd" d="M13.9126 14.6675L18.6615 19.4164L19.3686 18.7093L14.6197 13.9604L13.9126 14.6675ZM10.2441 10.9991L10.9512 10.292L5.9825 5.32324L5.27539 6.03035L10.2441 10.9991Z" fill="white"/>
</svg>

<svg width="24" height="24" fill="none" xmlns="http://www.w3.org/2000/svg"><path d="M13.137 13.137l5.057 1.355-3.702 3.702-1.355-5.057zm-1.725-1.725l-5.058-1.355 3.702-3.702 1.356 5.057z" fill="#fff"/><path fill-rule="evenodd" clip-rule="evenodd" d="M13.913 14.668l4.748 4.748.708-.707-4.75-4.749-.706.707zm-3.669-3.669l.707-.707-4.969-4.969-.707.707 4.97 4.97z" fill="#fff"/></svg>
